src/components/stable/gux-icon/icons/ic-open-book.svg

<svg xmlns="http://www.w3.org/2000/svg" viewBox="0 0 16 16"><path d="M15 1.6V14h-1.2c-.8 0-2.9 0-4.3 1h5.3c.6 0 1.2-.9 1.2-1.4v-11c0-.6 0-1-1-1zM1 14V1.6c-1 0-1 .4-1 1v11c0 .5.2 1.4.8 1.4H6c-.9-1-2.3-1-4.2-1H1z"/><path d="M14 .6c-2 0-3.6.5-4.6 1s-1.6 1-1.6 1c-.4-.4-.8-.7-1.3-1-2-1-4.5-1-4.5-1v12c4 0 6 2 6 2 1.9-2 6-2 6-2V.6zM6.3 11h-3c-.3 0-.5-.2-.5-.5s.2-.5.5-.5h3c.3 0 .5.2.5.5s-.2.5-.5.5zm0-2h-3c-.3 0-.5-.2-.5-.5S3 8 3.3 8h3c.3 0 .5.2.5.5s-.2.5-.5.5zm0-2h-3c-.3 0-.5-.2-.5-.5S3 6 3.3 6h3c.3 0 .5.2.5.5s-.2.5-.5.5zm0-2h-3c-.3 0-.5-.2-.5-.5S3 4 3.3 4h3c.3 0 .5.2.5.5s-.2.5-.5.5zm6 6h-3c-.3 0-.5-.2-.5-.5s.2-.5.5-.5h3c.3 0 .5.2.5.5s-.2.5-.5.5zm0-2h-3c-.3 0-.5-.2-.5-.5S9 8 9.3 8h3c.3 0 .5.2.5.5s-.2.5-.5.5zm0-2h-3c-.3 0-.5-.2-.5-.5S9 6 9.3 6h3c.3 0 .5.2.5.5s-.2.5-.5.5zm0-2h-3c-.3 0-.5-.2-.5-.5S9 4 9.3 4h3c.3 0 .5.2.5.5s-.2.5-.5.5z"/></svg>

<svg xmlns="http://www.w3.org/2000/svg" viewBox="0 0 16 16">
  <g>
    <path d="M15,1.6v11V14h-1.2c-0.8,0-2.9,0-4.3,1h5.3c0.6,0,1.2-0.9,1.2-1.4v-11C16,2,16,1.6,15,1.6z" />
    <path d="M1,14v-1.4v-11c-1,0-1,0.4-1,1v11C0,14.1,0.2,15,0.8,15H6c-0.9-1-2.3-1-4.2-1H1z" />
    <path d="M14,0.6c-2,0-3.6,0.5-4.6,1s-1.6,1-1.6,1C7.4,2.2,7,1.9,6.5,1.6c-2-1-4.5-1-4.5-1v12c4,0,6,2,6,2
    c1.9-2,6-2,6-2V0.6z M6.3,11h-3c-0.3,0-0.5-0.2-0.5-0.5C2.8,10.2,3,10,3.3,10h3c0.3,0,0.5,0.2,0.5,0.5C6.8,10.8,6.6,11,6.3,11z
     M6.3,9h-3C3,9,2.8,8.8,2.8,8.5C2.8,8.2,3,8,3.3,8h3c0.3,0,0.5,0.2,0.5,0.5C6.8,8.8,6.6,9,6.3,9z M6.3,7h-3C3,7,2.8,6.8,2.8,6.5
    C2.8,6.2,3,6,3.3,6h3c0.3,0,0.5,0.2,0.5,0.5C6.8,6.8,6.6,7,6.3,7z M6.3,5h-3C3,5,2.8,4.8,2.8,4.5C2.8,4.2,3,4,3.3,4h3
    c0.3,0,0.5,0.2,0.5,0.5C6.8,4.8,6.6,5,6.3,5z M12.3,11h-3c-0.3,0-0.5-0.2-0.5-0.5C8.8,10.2,9,10,9.3,10h3c0.3,0,0.5,0.2,0.5,0.5
    C12.8,10.8,12.6,11,12.3,11z M12.3,9h-3C9,9,8.8,8.8,8.8,8.5C8.8,8.2,9,8,9.3,8h3c0.3,0,0.5,0.2,0.5,0.5C12.8,8.8,12.6,9,12.3,9z
     M12.3,7h-3C9,7,8.8,6.8,8.8,6.5C8.8,6.2,9,6,9.3,6h3c0.3,0,0.5,0.2,0.5,0.5C12.8,6.8,12.6,7,12.3,7z M12.3,5h-3
    C9,5,8.8,4.8,8.8,4.5C8.8,4.2,9,4,9.3,4h3c0.3,0,0.5,0.2,0.5,0.5C12.8,4.8,12.6,5,12.3,5z" />
  </g>
</svg>
